assets/icons/supported_selectable_icons/logos/financial_institutions/673.svg

<svg xmlns="http://www.w3.org/2000/svg" width="512" height="512" fill="none"><path fill="#FCFC30" d="M0 0h512v512H0z"/><g clip-path="url(#a)"><mask id="b" width="332" height="332" x="90" y="90" maskUnits="userSpaceOnUse" style="mask-type:luminance"><path fill="#fff" d="M422 90H90v332h332z"/></mask><g mask="url(#b)"><path fill="#FDFB31" d="M422 90H90v332h332z"/></g><mask id="c" width="332" height="332" x="90" y="90" maskUnits="userSpaceOnUse" style="mask-type:luminance"><path fill="#fff" d="M422 90H90v332h332z"/></mask><g mask="url(#c)"><path fill="#FDFB31" d="M422 90H90v332h332z"/><path fill="url(#d)" d="m90 421.972 65.662-75.253 38.365 45.373 63.08-61.604 23.609 25.084L422 212.812l-.369 209.16z"/><path fill="#465EFD" d="m131.205 178.138 69.72-46.48 69.72 46.48-83 55.334-14.387-9.592 66.769-44.635-40.578-27.298-18.813 12.542 14.387 9.591-35.045 23.24zm139.44 46.48-69.72 46.48-69.72-46.48 83-55.333 14.387 9.591-66.769 44.636 40.577 27.297 18.814-12.542-14.387-9.591 35.045-23.24zm0-73.778-14.387 9.592-14.386-9.592 28.773-19.182zm-139.44 101.076 14.387-9.591 14.386 9.591-28.773 19.182zM90 413.486l66.4-74.884 39.84 46.48 62.711-65.294 21.027 26.191 86.689-83.368-21.027-6.272 53.858-20.657-16.231 53.12-8.116-18.076-95.911 92.96-21.027-25.084-62.342 64.924-39.84-46.111-56.44 64.556H90z"/></g></g><defs><linearGradient id="d" x1="353.408" x2="277.596" y1="415.066" y2="222.554" gradientUnits="userSpaceOnUse"><stop stop-color="#FEFA5F"/><stop offset="1" stop-color="#FADC4B"/></linearGradient><clipPath id="a"><path fill="#fff" d="M90 90h332v332H90z"/></clipPath></defs></svg>

<svg width="512" height="512" viewBox="0 0 512 512" fill="none" xmlns="http://www.w3.org/2000/svg">
<rect width="512" height="512" fill="#FCFC30"/>
<g clip-path="url(#clip0_2413_64297)">
<mask id="mask0_2413_64297" style="mask-type:luminance" maskUnits="userSpaceOnUse" x="90" y="90" width="332" height="332">
<path d="M422 90H90V422H422V90Z" fill="white"/>
</mask>
<g mask="url(#mask0_2413_64297)">
<path d="M422 90H90V422H422V90Z" fill="#FDFB31"/>
</g>
<mask id="mask1_2413_64297" style="mask-type:luminance" maskUnits="userSpaceOnUse" x="90" y="90" width="332" height="332">
<path d="M422 90H90V422H422V90Z" fill="white"/>
</mask>
<g mask="url(#mask1_2413_64297)">
<path d="M422 90H90V422H422V90Z" fill="#FDFB31"/>
<path d="M90 421.972L155.662 346.719L194.027 392.092L257.107 330.488L280.716 355.572L422 212.812L421.631 421.972H90Z" fill="url(#paint0_linear_2413_64297)"/>
<path d="M131.205 178.138L200.925 131.658L270.645 178.138L187.645 233.472L173.258 223.88L240.027 179.245L199.449 151.947L180.636 164.489L195.023 174.08L159.978 197.32L131.205 178.138ZM270.645 224.618L200.925 271.098L131.205 224.618L214.205 169.285L228.592 178.876L161.823 223.512L202.4 250.809L221.214 238.267L206.827 228.676L241.872 205.436L270.645 224.618ZM270.645 150.84L256.258 160.432L241.872 150.84L270.645 131.658V150.84ZM131.205 251.916L145.592 242.325L159.978 251.916L131.205 271.098V251.916Z" fill="#465EFD"/>
<path d="M90 413.486L156.4 338.602L196.24 385.082L258.951 319.788L279.978 345.979L366.667 262.611L345.64 256.339L399.498 235.682L383.267 288.802L375.151 270.726L279.24 363.686L258.213 338.602L195.871 403.526L156.031 357.415L99.5911 421.971H90V413.486Z" fill="#465EFD"/>
</g>
</g>
<defs>
<linearGradient id="paint0_linear_2413_64297" x1="353.408" y1="415.066" x2="277.596" y2="222.554" gradientUnits="userSpaceOnUse">
<stop stop-color="#FEFA5F"/>
<stop offset="1" stop-color="#FADC4B"/>
</linearGradient>
<clipPath id="clip0_2413_64297">
<rect width="332" height="332" fill="white" transform="translate(90 90)"/>
</clipPath>
</defs>
</svg>
